X: 1
T: The Braes of Tulliemet 2 [Em]
T: The Braes of Tullymet
R: strathspey
B: Neil Stewart 1761
B: RSCDS 2-10b
Z: John Chambers <jc:trillian.mit.edu>
M: 4/4
L: 1/8
K: Edor
F \
| "Em"E<B B>A B>A B<d | "D"(3FED A>D B>D A>F \
| "Em"E<B B>A B>A B<e | "Bm"d>B A>F "Em"E/E/E E :|
B \
| "Em"e>B e<g e>B e<g | "D"d>A d<f d>A d<f \
| "Em"e>B e<g e>B e<g | "Bm"d>B A>F "Em"E/E/E E |]
B \
| "Em"e>B e<g (3Bef (3gfe | "D"d>A d<f (3Ade (3fed \
| "Em"e<B B>c "D"d>e f>e | "Bm"d>B A>F "Em"E/E/E E |]
%%center Book02/Braes_of_Tulliemet_Em-JC.abc

%%sep 1 1 500
%%sep 1 1 500

